material/.icons/material/home-floor-negative-1.svg

<svg xmlns="http://www.w3.org/2000/svg" viewBox="0 0 24 24"><path d="M12 3L2 12h3v8h14v-8h3L12 3m-1 12H7v-2h4v2m4 3h-2v-8h-2V8h4v10z"/></svg>

<?xml version="1.0" encoding="UTF-8"?><!DOCTYPE svg PUBLIC "-//W3C//DTD SVG 1.1//EN" "http://www.w3.org/Graphics/SVG/1.1/DTD/svg11.dtd"><svg xmlns="http://www.w3.org/2000/svg" xmlns:xlink="http://www.w3.org/1999/xlink" version="1.1" id="mdi-home-floor-negative-1" width="24" height="24" viewBox="0 0 24 24"><path d="M12,3L2,12H5V20H19V12H22L12,3M11,15H7V13H11V15M15,18H13V10H11V8H15V18Z" /></svg>
